src/assets/Imgs/message.svg

<svg fill="none" height="22" viewBox="0 0 22 22" width="22" xmlns="http://www.w3.org/2000/svg"><path d="m15.584 1.83325h-9.16668c-2.53 0-4.58334 2.04417-4.58334 4.565v5.48165.9167c0 2.5208 2.05334 4.565 4.58334 4.565h1.375c.2475 0 .5775.165.73333.3667l1.375 1.8241c.60505.8067 1.59505.8067 2.20005 0l1.375-1.8241c.1741-.2292.4491-.3667.7333-.3667h1.375c2.53 0 4.5833-2.0442 4.5833-4.565v-6.39835c0-2.52083-2.0533-4.565-4.5833-4.565zm-3.6667 10.77085h-5.49998c-.37584 0-.6875-.3117-.6875-.6875s.31166-.6875.6875-.6875h5.49998c.3759 0 .6875.3117.6875.6875s-.3116.6875-.6875.6875zm3.6667-4.58335h-9.16668c-.37584 0-.6875-.31167-.6875-.6875s.31166-.6875.6875-.6875h9.16668c.3758 0 .6875.31167.6875.6875s-.3117.6875-.6875.6875z" fill="#fff"/></svg>

<svg width="22" height="22" viewBox="0 0 22 22" fill="none" xmlns="http://www.w3.org/2000/svg">
<g id="vuesax/bold/message-text">
<g id="message-text">
<path id="Vector" d="M15.584 1.83325H6.41732C3.88732 1.83325 1.83398 3.87742 1.83398 6.39825V11.8799V12.7966C1.83398 15.3174 3.88732 17.3616 6.41732 17.3616H7.79232C8.03982 17.3616 8.36982 17.5266 8.52565 17.7283L9.90065 19.5524C10.5057 20.3591 11.4957 20.3591 12.1007 19.5524L13.4757 17.7283C13.6498 17.4991 13.9248 17.3616 14.209 17.3616H15.584C18.114 17.3616 20.1673 15.3174 20.1673 12.7966V6.39825C20.1673 3.87742 18.114 1.83325 15.584 1.83325ZM11.9173 12.6041H6.41732C6.04148 12.6041 5.72982 12.2924 5.72982 11.9166C5.72982 11.5408 6.04148 11.2291 6.41732 11.2291H11.9173C12.2932 11.2291 12.6048 11.5408 12.6048 11.9166C12.6048 12.2924 12.2932 12.6041 11.9173 12.6041ZM15.584 8.02075H6.41732C6.04148 8.02075 5.72982 7.70908 5.72982 7.33325C5.72982 6.95742 6.04148 6.64575 6.41732 6.64575H15.584C15.9598 6.64575 16.2715 6.95742 16.2715 7.33325C16.2715 7.70908 15.9598 8.02075 15.584 8.02075Z" fill="white"/>
</g>
</g>
</svg>
